X: 13732
T: Forest Lodge
R: reel
M: 4/4
K: Amixolydian
e|a2 ae feae|faec BcdB|a2 ae feae|faec B2 A:|
a|cAAA cAec|dfec BcdB|1 cAAA cAec|dfec B2A:|2 cAeA fAeA|aAeA B2 A||

